wp-content/plugins/wp-rocket/assets/img/bandwidth.svg

<svg height="25" viewBox="0 0 26 25" width="26" xmlns="http://www.w3.org/2000/svg"><g fill="none" fill-rule="evenodd" stroke-linecap="round" stroke-linejoin="round" stroke-width="1.5" transform="translate(1 1)"><path d="m5.28225948 18c-4.10163007-3.8475016-4.39941389-10.39226541-.66606768-14.61812089 3.1598756-3.57539029 8.3021707-4.41991092 12.3838082-2.0337878" stroke="#121116"/><path d="m1.35734283 18c-1.30058125 2.2171445-1.73589534 3.9376487-1.00143684 4.6533951 1.11509027 1.0840532 4.60403618-.4486457 8.64409401-3.5662118" stroke="#121116"/><g stroke="#f56640"><path d="m13.0060426 19-4.0060426-4.0055753 8.9039333-8.90289466c.7262351-.72615038 1.6359873-1.24083325 2.6330219-1.48810479l2.2906059-.57510216c.5057909-.12643296 1.0182958.18237675 1.1447435.68810861.0369272.14992936.0369272.30657197 0 .45650132l-.5729312 2.29145761c-.2484194.99579945-.7642814 1.90544547-1.4905165 2.63159587z"/><path d="m9.63213116 15-3.30585586-1.0591814c-.24917945-.0791405-.38448051-.3382442-.30217236-.5778339.02367768-.0682993.06314049-.1300939.11613341-.1810474l1.15231401-1.1079666c1.02152299-.9822092 2.53238481-1.3247898 3.90343554-.8857228l1.8040141.5767497z"/><path d="m14 18.3667413 1.0591814 3.3069834c.0791405.2491794.3382442.3844805.5778339.3021724.0682993-.0236777.1300939-.0631405.1810474-.1161334l1.1079666-1.1523141c.9822092-1.0215229 1.3247898-2.5323848.8857228-3.9034355l-.5767497-1.8040141z"/></g></g></svg>

<?xml version="1.0" encoding="UTF-8"?>
<svg width="26px" height="25px" viewBox="0 0 26 25" version="1.1" xmlns="http://www.w3.org/2000/svg" xmlns:xlink="http://www.w3.org/1999/xlink">
    <!-- Generator: Sketch 59 (86127) - https://sketch.com -->
    <title>streamline-icon-space-rocket-earth@24x24</title>
    <desc>Created with Sketch.</desc>
    <g id="CDN" stroke="none" stroke-width="1" fill="none" fill-rule="evenodd" stroke-linecap="round" stroke-linejoin="round">
        <g id="CDN-(promo)Rocket-CDN-(full)-Copy" transform="translate(-468.000000, -371.000000)" stroke-width="1.5">
            <g id="streamline-icon-space-rocket-earth@24x24" transform="translate(469.000000, 372.000000)">
                <path d="M5.28225948,18 C1.18062941,14.1524984 0.88284559,7.60773459 4.6161918,3.38187911 C7.7760674,-0.193511179 12.9183625,-1.03803181 17,1.34809131" id="Path" stroke="#121116"></path>
                <path d="M1.35734283,18 C0.0567615773,20.2171445 -0.37855251,21.9376487 0.355905987,22.6533951 C1.47099626,23.7374483 4.95994217,22.2047494 9,19.0871833" id="Path" stroke="#121116"></path>
                <path d="M13.0060426,19 L9,14.9944247 L17.9039333,6.09153004 C18.6301684,5.36537966 19.5399206,4.85069679 20.5369552,4.60342525 L22.8275611,4.02832309 C23.333352,3.90189013 23.8458569,4.21069984 23.9723046,4.7164317 C24.0092318,4.86636106 24.0092318,5.02300367 23.9723046,5.17293302 L23.3993734,7.46439063 C23.150954,8.46019008 22.635092,9.3698361 21.9088569,10.0959865 L13.0060426,19 Z" id="Path" stroke="#F56640"></path>
                <path d="M9.63213116,15 L6.3262753,13.9408186 C6.07709585,13.8616781 5.94179479,13.6025744 6.02410294,13.3629847 C6.04778062,13.2946854 6.08724343,13.2328908 6.14023635,13.1819373 L7.29255036,12.0739707 C8.31407335,11.0917615 9.82493517,10.7491809 11.1959859,11.1882479 L13,11.7649976 L9.63213116,15 Z" id="Path" stroke="#F56640"></path>
                <path d="M14,18.3667413 L15.0591814,21.6737247 C15.1383219,21.9229041 15.3974256,22.0582052 15.6370153,21.9758971 C15.7053146,21.9522194 15.7671092,21.9127566 15.8180627,21.8597637 L16.9260293,20.7074496 C17.9082385,19.6859267 18.2508191,18.1750648 17.8117521,16.8040141 L17.2350024,15 L14,18.3667413 Z" id="Path" stroke="#F56640"></path>
            </g>
        </g>
    </g>
</svg>
